X:1
T:New Zealand, 98.98 D
T:New Zealand, 98.98 D
T:Simpson Ely, 1887
T:Public Domain Courtesy of the Cyber Hymnal™
C:Simpson Ely, 1887
Z:Public Domain
Z:Courtesy of the Cyber Hymnal™
%%score ( 1 2 ) ( 3 4 )
L:1/8
Q:1/4=105
M:2/4
K:G
V:1 treble 
V:2 treble 
V:3 bass 
V:4 bass 
V:1
 D2 | [DG]2 D[DG] | [GB]2 [DG][GB] | [Gd]4 | [GB]2 z D | [DG]2 D[DG] | [GB]2 G[GB] | [FA]4- | %8
 [FA]2 [CD]2 | [B,G]2 [B,D][B,G] | [DB]2 [DG][GB] | [Gd]4 | [GB]2 z D | [DG]2 [GB][GB] | %14
 [EA]2 [CE][CF] | [B,G]4- | [B,G]2 z [Gd] | [Gd]2 [GB][Gd] | [Gd]2 [GB][Gd] | [Gd]4 | %20
 [GB]2 z [GB] | [GB]2 G[GB] | [GB]2 G[GB] | [FA]4- | [FA]2 z D | [DG]2 D[DG] | [GB]2 [DG][GB] | %27
 [Gd]4 | [GB]2 z D | [DG]2 [GB][GB] | [EA]2 [CE][CF] | [B,G]4- | [B,G]2 |] %33
V:2
 D2 | x2 D x | x4 | x4 | x3 D | x2 D x | x2 G x | x4 | x4 | x4 | x4 | x4 | x3 D | x4 | x4 | x4 | %16
 x4 | x4 | x4 | x4 | x4 | x2 G x | x2 G x | x4 | x3 D | x2 D x | x4 | x4 | x3 D | x4 | x4 | x4 | %32
 x2 |] %33
V:3
 [G,B,]2 | [G,B,]2 [G,B,][G,B,] | [G,D]2 [G,B,][G,D] | [G,B,]4 | [G,D]2 z [G,B,] | %5
 [G,B,]2 [G,B,][G,B,] | [G,D]2 [B,D][G,D] | [D,D]4- | [D,D]2 [D,F,]2 | [G,,G,]2 [B,,G,][D,G,] | %10
 G,2 [G,B,][G,D] | [G,B,]4 | [G,D]2 z [G,B,] | [G,B,]2 [G,D][G,D] | [C,C]2 [A,,C][D,A,] | %15
 [G,,B,]4- | [G,,B,]2 z [B,D] | [B,D]2 [G,D][B,D] | [B,D]2 [G,D][B,D] | [G,B,]4 | [G,D]2 z [G,D] | %21
 [E,E]2 [E,E][E,E] | [A,,^C]2 [A,,C][A,,C] | [D,C]4- | [D,C]2 z [A,C] | [G,B,]2 [G,B,][G,B,] | %26
 [G,D]2 [G,B,][G,D] | [G,B,]4 | [G,D]2 z [G,B,] | [G,B,]2 [G,D][G,D] | [C,C]2 [A,,C][D,A,] | %31
 [G,,B,]4- | [G,,B,]2 |] %33
V:4
 x2 | x4 | x4 | x4 | x4 | x4 | x4 | x4 | x4 | x4 | G,2 x2 | x4 | x4 | x4 | x4 | x4 | x4 | x4 | x4 | %19
 x4 | x4 | x4 | x4 | x4 | x4 | x4 | x4 | x4 | x4 | x4 | x4 | x4 | x2 |] %33

